src/assets/images/icons/server.svg

<svg width="24" height="24" viewBox="0 0 24 24" fill="none" xmlns="http://www.w3.org/2000/svg">
<path d="M6 6H6.01M6 18H6.01M4 2H20C21.1046 2 22 2.89543 22 4V8C22 9.10457 21.1046 10 20 10H4C2.89543 10 2 9.10457 2 8V4C2 2.89543 2.89543 2 4 2ZM4 14H20C21.1046 14 22 14.8954 22 16V20C22 21.1046 21.1046 22 20 22H4C2.89543 22 2 21.1046 2 20V16C2 14.8954 2.89543 14 4 14Z" stroke="#181D27" stroke-width="2" stroke-linecap="round" stroke-linejoin="round"/>
</svg>

<svg xmlns="http://www.w3.org/2000/svg" fill="none" viewBox="0 0 24 24"><path stroke="#181D27" stroke-linecap="round" stroke-linejoin="round" stroke-width="2" d="M6 6h.01M6 18h.01M4 2h16a2 2 0 0 1 2 2v4a2 2 0 0 1-2 2H4a2 2 0 0 1-2-2V4a2 2 0 0 1 2-2m0 12h16a2 2 0 0 1 2 2v4a2 2 0 0 1-2 2H4a2 2 0 0 1-2-2v-4a2 2 0 0 1 2-2"/></svg>
